X:32
%%topspace -50
T: Hey Little Girl, Do What I Tell You
M: 4/4
L: 1/8
R: Reel
K: Amaj
"A" E2 F2 A2 AB| cB A2 c(e e2)| E2 F2 A2 AB| cB A2 "D"F4|
 "A" E2 F2 A2 AB| cB A2 c(e e2)| "A"efed "E" cA B2| "A" A3 B A4 ::
 "A" edcd e2 ef| edcB A2 e2| "D" fede f2 a2| "A" e3 f e4|
 "D" fede f2 a2| "A" efed cBAB| "A"c2c2 "E" BA F2| "A" A3 B A4 :|]

